!!!OTL: Billy Taylor
!!!ONM: 32.
**kern
*clefG2
*k[b-]
*F:
*M4/4
*MM80
{4f
4f
8cc
8cc
8cc
8cc
=2
4dd
4dd
4cc
4g}
=3
{4f
4f
4cc
4cc
=4
4dd
4dd
4b-
4r}
=5
{4cc
4a
4cc
4a
=6
4f
4f
4a
4f}
=7
{4g
4g
4b-
4g
=8
4f
4e
4.f
8r}
=9||
{4.g
8f
8e
8d
8d
8e
=10
4d
4c
4.g
8a
=11
4.b-
8r}
{4.a
8b-
=12
4cc
4a
4.g
8f
=13
2g
2f}
==
*-
!!!CNT: Folksongs of Maritime Canada
!!!MRD: 1928///-1932///
!!!OCL: Helen Creighton
!!!YOR: Songs and Ballads from Nova Scotia
!!!PPR: J.M. Dent & Sons, Limited
!!!PPP: Toronto, Canada
!!!PDT: 1932///
!!!reprint: Dover Publications, 1992: ISBN 0-486-21703-5
!!!ENC1: Craig Stuart Sapp (music and bibliographic data)                       
!!!ENC2: Marcus Pearce (phrase markings and key designations)                   
!!!ENC3: Darrell Conklin (phrase markings and key designations)   
!!!END: 2002/04/10/
!!!EEV: 2004/06/05
!!!MPN: Mrs. William McNab
!!!PPG: 64
!!!EFL: 32/152
!!!ARE: Canada; Nova Scotia
!!!verses: 9
!!!VTS: 1415726999
